report_00007_2020-12-11T15:55:29.892Z/mainthread-work-breakdown/comparison/line/5_vs_6.svg

<svg width="640" height="500" xmlns="http://www.w3.org/2000/svg" xmlns:xlink="http://www.w3.org/1999/xlink"><path fill="#fff" d="M0 0h640v500H0z"/><defs><path id="d" stroke-width=".222" stroke="currentColor" d="M-1-1h2v2h-2z"/><path id="b" stroke-width=".222" stroke="currentColor" d="M0-1.33l-1.33 2h2.66z"/><path id="f" stroke-width=".222" stroke="currentColor" d="M0 1.33L1.265.411.782-1.067l-1.564-.009-.483 1.487z"/><use xlink:href="#b" id="c" stroke="currentColor" transform="rotate(180)"/><use xlink:href="#d" id="e" stroke="currentColor" transform="rotate(45)"/><circle id="a" stroke-width=".222" stroke="currentColor" cx="0" cy="0" r="1"/></defs><g fill="none" color="#000" stroke="currentColor"><path stroke="#000" d="M53.9 369.4h9m552.1 0h-9"/><text transform="translate(45.6 373.3)" stroke="none" fill="#000" font-family="Arial" font-size="12" text-anchor="end"><tspan>600</tspan></text></g><g fill="none" color="#000" stroke="currentColor"><path stroke="#000" d="M53.9 309.2h9m552.1 0h-9"/><text transform="translate(45.6 313.1)" stroke="none" fill="#000" font-family="Arial" font-size="12" text-anchor="end"><tspan>650</tspan></text></g><g fill="none" color="#000" stroke="currentColor"><path stroke="#000" d="M53.9 249.1h9m552.1 0h-9"/><text transform="translate(45.6 253)" stroke="none" fill="#000" font-family="Arial" font-size="12" text-anchor="end"><tspan>700</tspan></text></g><g fill="none" color="#000" stroke="currentColor"><path stroke="#000" d="M53.9 188.9h9m552.1 0h-9"/><text transform="translate(45.6 192.8)" stroke="none" fill="#000" font-family="Arial" font-size="12" text-anchor="end"><tspan>750</tspan></text></g><g fill="none" color="#000" stroke="currentColor"><path stroke="#000" d="M53.9 128.7h9m552.1 0h-9"/><text transform="translate(45.6 132.6)" stroke="none" fill="#000" font-family="Arial" font-size="12" text-anchor="end"><tspan>800</tspan></text></g><g fill="none" color="#000" stroke="currentColor"><path stroke="#000" d="M53.9 68.5h9m552.1 0h-9"/><text transform="translate(45.6 72.4)" stroke="none" fill="#000" font-family="Arial" font-size="12" text-anchor="end"><tspan>850</tspan></text></g><g fill="none" color="#000" stroke="currentColor"><path stroke="#000" d="M53.9 392v-9m0-364.9v9"/><text transform="translate(53.9 413.9)" stroke="none" fill="#000" font-family="Arial" font-size="12" text-anchor="middle"><tspan>0</tspan></text></g><g fill="none" color="#000" stroke="currentColor"><path stroke="#000" d="M110.6 392v-9m0-364.9v9"/><text transform="translate(110.6 413.9)" stroke="none" fill="#000" font-family="Arial" font-size="12" text-anchor="middle"><tspan>10</tspan></text></g><g fill="none" color="#000" stroke="currentColor"><path stroke="#000" d="M167.3 392v-9m0-364.9v9"/><text transform="translate(167.3 413.9)" stroke="none" fill="#000" font-family="Arial" font-size="12" text-anchor="middle"><tspan>20</tspan></text></g><g fill="none" color="#000" stroke="currentColor"><path stroke="#000" d="M223.9 392v-9m0-364.9v9"/><text transform="translate(223.9 413.9)" stroke="none" fill="#000" font-family="Arial" font-size="12" text-anchor="middle"><tspan>30</tspan></text></g><g fill="none" color="#000" stroke="currentColor"><path stroke="#000" d="M280.6 392v-9m0-364.9v9"/><text transform="translate(280.6 413.9)" stroke="none" fill="#000" font-family="Arial" font-size="12" text-anchor="middle"><tspan>40</tspan></text></g><g fill="none" color="#000" stroke="currentColor"><path stroke="#000" d="M337.3 392v-9m0-364.9v9"/><text transform="translate(337.3 413.9)" stroke="none" fill="#000" font-family="Arial" font-size="12" text-anchor="middle"><tspan>50</tspan></text></g><g fill="none" color="#000" stroke="currentColor"><path stroke="#000" d="M394 392v-9m0-364.9v9"/><text transform="translate(394 413.9)" stroke="none" fill="#000" font-family="Arial" font-size="12" text-anchor="middle"><tspan>60</tspan></text></g><g fill="none" color="#000" stroke="currentColor"><path stroke="#000" d="M450.6 392v-9m0-364.9v9"/><text transform="translate(450.6 413.9)" stroke="none" fill="#000" font-family="Arial" font-size="12" text-anchor="middle"><tspan>70</tspan></text></g><g fill="none" color="#000" stroke="currentColor"><path stroke="#000" d="M507.3 392v-9m0-364.9v9"/><text transform="translate(507.3 413.9)" stroke="none" fill="#000" font-family="Arial" font-size="12" text-anchor="middle"><tspan>80</tspan></text></g><g fill="none" color="#000" stroke="currentColor"><path stroke="#000" d="M564 392v-9m0-364.9v9"/><text transform="translate(564 413.9)" stroke="none" fill="#000" font-family="Arial" font-size="12" text-anchor="middle"><tspan>90</tspan></text></g><path stroke="#000" d="M53.9 18.1V392H615V18.1H53.9z" fill="none" color="#000"/><text transform="translate(433.7 431.9)" stroke="none" fill="#000" font-family="Arial" font-size="12" text-anchor="end" color="#000"><tspan>pages+cached+noexternal</tspan></text><path stroke="#9400D3" d="M442 428h42.2M53.9 144.6l5.7-38.8L65.2 83l5.7 31 5.7-2.6 5.6 8 5.7-18.8 5.7 26.5 5.6-29.9 5.7 5.4 5.7-3.6 5.6-7.3 5.7-4 5.7-9.5 5.6 53.9 5.7-43.5 5.7 3 5.7-5.1 5.6 40 5.7-25.7 5.7-17.1 5.6 50.8 5.7-36.5 5.7-23.6 5.6 28.6 5.7-5 5.7 17.9 5.6 31.6 5.7-53.5 5.7 44 5.6-25.3 5.7-12.7 5.7 6.1 5.6 50.8 5.7-65.4 5.7-21.2 5.6 58.4 5.7 7.9 5.7-28.5 5.6 15.7 5.7 1.5 5.7 1.7 5.6-49.4 5.7-3.8 5.7 91 5.6-63.8 5.7 13.7 5.7 44.7 5.6-21.1 5.7 16.3 5.7-72L343 101l5.6-16 5.7-4.4 5.7-41.1 5.6 107.1 5.7 2L377 76l5.6 18.3 5.7 35.5 5.7-46.3 5.6 17.3 5.7-4.9 5.7-7.2 5.6-.9 5.7 6.9 5.7 17.7 5.6-7.4 5.7-36 5.7 64.3 5.6-27.8 5.7-4.4 5.7 31.3 5.6-47.8 5.7 34.8L479 93l5.6 42.8 5.7-33.6 5.7-76.9 5.6 59.5 5.7 37.9 5.7-63.1 5.6 26 5.7 11.8 5.7 5.1 5.7 6.9 5.6-20.8 5.7 35.7 5.7-4.3 5.6-8.9 5.7-32.6 5.7 34.6 5.6-71 5.7 82.8 5.7-38.6 5.6 23.7 5.7-6.5 5.7 33.2 5.6-25.5 5.7-2" fill="none" color="#000"/><text transform="translate(433.7 449.9)" stroke="none" fill="#000" font-family="Arial" font-size="12" text-anchor="end" color="#000"><tspan>pages+cached+noexternal+nofonts</tspan></text><path stroke="#009E73" d="M442 446h42.2M53.9 284.9l5.7 42.9 5.6-52.5 5.7-5.3 5.7 3.6 5.6 7 5.7 45.4 5.7-37.9 5.6 43.3 5.7-29.4 5.7-28.9 5.6 29.3 5.7-34.4 5.7 64.3 5.6-40.1 5.7-5.1 5.7-11.1 5.7 11.1 5.6-12.3 5.7 25.6 5.7 32.9 5.6-107.4 5.7 50.5 5.7-7.9 5.6-7 5.7-.2 5.7 20.1 5.6.9 5.7 1.7 5.7 17.9 5.6-4.8 5.7-16.1 5.7 1.1 5.6 16.7 5.7 18.8 5.7-12.4 5.6 24.4 5.7-64.9 5.7-2.9 5.6-40.7 5.7 84.8 5.7 10.6 5.6 9.1 5.7-44.6 5.7-41.5 5.6 65.3 5.7-37.1 5.7 48 5.6 35.1 5.7-35.6 5.7-15.1 5.7-22.7 5.6-1.6 5.7 10.9 5.7 23.1 5.6-22.4 5.7-4.2 5.7 24.4 5.6-14.4 5.7-17.6 5.7 70 5.6-50.9 5.7 27 5.7-27.1 5.6 38.7 5.7-2.6 5.7-34.6 5.6 12 5.7-6.6L445 268l5.6 6.7 5.7 15.1 5.7-19.7 5.6 86.4 5.7-43.3 5.7-18.4 5.6 27 5.7-17.9 5.7-32.7 5.6-27.2 5.7 65.1 5.7-22.9 5.6 36.4 5.7 26.7 5.7-63.1 5.7 10 5.6 9.4 5.7 39.6 5.7-47.6 5.6 12.8 5.7-3.1 5.7-23.4 5.6 2.3 5.7 53.5 5.7 45.1 5.6-76.8 5.7-34.4 5.7 23.9 5.6-22.2 5.7 1.9" fill="none" color="#000"/><text transform="translate(433.7 467.9)" stroke="none" fill="#000" font-family="Arial" font-size="12" text-anchor="end" color="#000"><tspan>score p10=2017</tspan></text><path stroke="#56B4E9" d="M442 464h42.2" fill="none" color="#000"/><g><text transform="translate(433.7 485.9)" stroke="none" fill="#000" font-family="Arial" font-size="12" text-anchor="end" color="#000"><tspan>score median=4000</tspan></text><path stroke="#E69F00" d="M442 482h42.2" fill="none" color="#000"/></g><g fill="none" color="#000" stroke="currentColor"><path stroke="#000" d="M53.9 18.1V392H615V18.1H53.9z"/></g></svg>

<?xml version="1.0" encoding="utf-8"  standalone="no"?>
<svg 
 width="640" height="500"
 viewBox="0 0 640 500"
 xmlns="http://www.w3.org/2000/svg"
 xmlns:xlink="http://www.w3.org/1999/xlink"
>

<title>Gnuplot</title>
<desc>Produced by GNUPLOT 5.4 patchlevel 0 </desc>

<g id="gnuplot_canvas">

<rect x="0" y="0" width="640" height="500" fill="#ffffff"/>
<defs>

	<circle id='gpDot' r='0.5' stroke-width='0.5' stroke='currentColor'/>
	<path id='gpPt0' stroke-width='0.222' stroke='currentColor' d='M-1,0 h2 M0,-1 v2'/>
	<path id='gpPt1' stroke-width='0.222' stroke='currentColor' d='M-1,-1 L1,1 M1,-1 L-1,1'/>
	<path id='gpPt2' stroke-width='0.222' stroke='currentColor' d='M-1,0 L1,0 M0,-1 L0,1 M-1,-1 L1,1 M-1,1 L1,-1'/>
	<rect id='gpPt3' stroke-width='0.222' stroke='currentColor' x='-1' y='-1' width='2' height='2'/>
	<rect id='gpPt4' stroke-width='0.222' stroke='currentColor' fill='currentColor' x='-1' y='-1' width='2' height='2'/>
	<circle id='gpPt5' stroke-width='0.222' stroke='currentColor' cx='0' cy='0' r='1'/>
	<use xlink:href='#gpPt5' id='gpPt6' fill='currentColor' stroke='none'/>
	<path id='gpPt7' stroke-width='0.222' stroke='currentColor' d='M0,-1.33 L-1.33,0.67 L1.33,0.67 z'/>
	<use xlink:href='#gpPt7' id='gpPt8' fill='currentColor' stroke='none'/>
	<use xlink:href='#gpPt7' id='gpPt9' stroke='currentColor' transform='rotate(180)'/>
	<use xlink:href='#gpPt9' id='gpPt10' fill='currentColor' stroke='none'/>
	<use xlink:href='#gpPt3' id='gpPt11' stroke='currentColor' transform='rotate(45)'/>
	<use xlink:href='#gpPt11' id='gpPt12' fill='currentColor' stroke='none'/>
	<path id='gpPt13' stroke-width='0.222' stroke='currentColor' d='M0,1.330 L1.265,0.411 L0.782,-1.067 L-0.782,-1.076 L-1.265,0.411 z'/>
	<use xlink:href='#gpPt13' id='gpPt14' fill='currentColor' stroke='none'/>
	<filter id='textbox' filterUnits='objectBoundingBox' x='0' y='0' height='1' width='1'>
	  <feFlood flood-color='#FFFFFF' flood-opacity='1' result='bgnd'/>
	  <feComposite in='SourceGraphic' in2='bgnd' operator='atop'/>
	</filter>
	<filter id='greybox' filterUnits='objectBoundingBox' x='0' y='0' height='1' width='1'>
	  <feFlood flood-color='lightgrey' flood-opacity='1' result='grey'/>
	  <feComposite in='SourceGraphic' in2='grey' operator='atop'/>
	</filter>
</defs>
<g fill="none" color="#FFFFFF" stroke="black" stroke-width="1.00" stroke-linecap="butt" stroke-linejoin="miter">
</g>
<g fill="none" color="black" stroke="currentColor" stroke-width="1.00" stroke-linecap="butt" stroke-linejoin="miter">
	<path stroke='black'  d='M53.9,369.4 L62.9,369.4 M615.0,369.4 L606.0,369.4  '/>	<g transform="translate(45.6,373.3)" stroke="none" fill="black" font-family="Arial" font-size="12.00"  text-anchor="end">
		<text><tspan font-family="Arial" > 600</tspan></text>
	</g>
</g>
<g fill="none" color="black" stroke="currentColor" stroke-width="1.00" stroke-linecap="butt" stroke-linejoin="miter">
	<path stroke='black'  d='M53.9,309.2 L62.9,309.2 M615.0,309.2 L606.0,309.2  '/>	<g transform="translate(45.6,313.1)" stroke="none" fill="black" font-family="Arial" font-size="12.00"  text-anchor="end">
		<text><tspan font-family="Arial" > 650</tspan></text>
	</g>
</g>
<g fill="none" color="black" stroke="currentColor" stroke-width="1.00" stroke-linecap="butt" stroke-linejoin="miter">
	<path stroke='black'  d='M53.9,249.1 L62.9,249.1 M615.0,249.1 L606.0,249.1  '/>	<g transform="translate(45.6,253.0)" stroke="none" fill="black" font-family="Arial" font-size="12.00"  text-anchor="end">
		<text><tspan font-family="Arial" > 700</tspan></text>
	</g>
</g>
<g fill="none" color="black" stroke="currentColor" stroke-width="1.00" stroke-linecap="butt" stroke-linejoin="miter">
	<path stroke='black'  d='M53.9,188.9 L62.9,188.9 M615.0,188.9 L606.0,188.9  '/>	<g transform="translate(45.6,192.8)" stroke="none" fill="black" font-family="Arial" font-size="12.00"  text-anchor="end">
		<text><tspan font-family="Arial" > 750</tspan></text>
	</g>
</g>
<g fill="none" color="black" stroke="currentColor" stroke-width="1.00" stroke-linecap="butt" stroke-linejoin="miter">
	<path stroke='black'  d='M53.9,128.7 L62.9,128.7 M615.0,128.7 L606.0,128.7  '/>	<g transform="translate(45.6,132.6)" stroke="none" fill="black" font-family="Arial" font-size="12.00"  text-anchor="end">
		<text><tspan font-family="Arial" > 800</tspan></text>
	</g>
</g>
<g fill="none" color="black" stroke="currentColor" stroke-width="1.00" stroke-linecap="butt" stroke-linejoin="miter">
	<path stroke='black'  d='M53.9,68.5 L62.9,68.5 M615.0,68.5 L606.0,68.5  '/>	<g transform="translate(45.6,72.4)" stroke="none" fill="black" font-family="Arial" font-size="12.00"  text-anchor="end">
		<text><tspan font-family="Arial" > 850</tspan></text>
	</g>
</g>
<g fill="none" color="black" stroke="currentColor" stroke-width="1.00" stroke-linecap="butt" stroke-linejoin="miter">
	<path stroke='black'  d='M53.9,392.0 L53.9,383.0 M53.9,18.1 L53.9,27.1  '/>	<g transform="translate(53.9,413.9)" stroke="none" fill="black" font-family="Arial" font-size="12.00"  text-anchor="middle">
		<text><tspan font-family="Arial" > 0</tspan></text>
	</g>
</g>
<g fill="none" color="black" stroke="currentColor" stroke-width="1.00" stroke-linecap="butt" stroke-linejoin="miter">
	<path stroke='black'  d='M110.6,392.0 L110.6,383.0 M110.6,18.1 L110.6,27.1  '/>	<g transform="translate(110.6,413.9)" stroke="none" fill="black" font-family="Arial" font-size="12.00"  text-anchor="middle">
		<text><tspan font-family="Arial" > 10</tspan></text>
	</g>
</g>
<g fill="none" color="black" stroke="currentColor" stroke-width="1.00" stroke-linecap="butt" stroke-linejoin="miter">
	<path stroke='black'  d='M167.3,392.0 L167.3,383.0 M167.3,18.1 L167.3,27.1  '/>	<g transform="translate(167.3,413.9)" stroke="none" fill="black" font-family="Arial" font-size="12.00"  text-anchor="middle">
		<text><tspan font-family="Arial" > 20</tspan></text>
	</g>
</g>
<g fill="none" color="black" stroke="currentColor" stroke-width="1.00" stroke-linecap="butt" stroke-linejoin="miter">
	<path stroke='black'  d='M223.9,392.0 L223.9,383.0 M223.9,18.1 L223.9,27.1  '/>	<g transform="translate(223.9,413.9)" stroke="none" fill="black" font-family="Arial" font-size="12.00"  text-anchor="middle">
		<text><tspan font-family="Arial" > 30</tspan></text>
	</g>
</g>
<g fill="none" color="black" stroke="currentColor" stroke-width="1.00" stroke-linecap="butt" stroke-linejoin="miter">
	<path stroke='black'  d='M280.6,392.0 L280.6,383.0 M280.6,18.1 L280.6,27.1  '/>	<g transform="translate(280.6,413.9)" stroke="none" fill="black" font-family="Arial" font-size="12.00"  text-anchor="middle">
		<text><tspan font-family="Arial" > 40</tspan></text>
	</g>
</g>
<g fill="none" color="black" stroke="currentColor" stroke-width="1.00" stroke-linecap="butt" stroke-linejoin="miter">
	<path stroke='black'  d='M337.3,392.0 L337.3,383.0 M337.3,18.1 L337.3,27.1  '/>	<g transform="translate(337.3,413.9)" stroke="none" fill="black" font-family="Arial" font-size="12.00"  text-anchor="middle">
		<text><tspan font-family="Arial" > 50</tspan></text>
	</g>
</g>
<g fill="none" color="black" stroke="currentColor" stroke-width="1.00" stroke-linecap="butt" stroke-linejoin="miter">
	<path stroke='black'  d='M394.0,392.0 L394.0,383.0 M394.0,18.1 L394.0,27.1  '/>	<g transform="translate(394.0,413.9)" stroke="none" fill="black" font-family="Arial" font-size="12.00"  text-anchor="middle">
		<text><tspan font-family="Arial" > 60</tspan></text>
	</g>
</g>
<g fill="none" color="black" stroke="currentColor" stroke-width="1.00" stroke-linecap="butt" stroke-linejoin="miter">
	<path stroke='black'  d='M450.6,392.0 L450.6,383.0 M450.6,18.1 L450.6,27.1  '/>	<g transform="translate(450.6,413.9)" stroke="none" fill="black" font-family="Arial" font-size="12.00"  text-anchor="middle">
		<text><tspan font-family="Arial" > 70</tspan></text>
	</g>
</g>
<g fill="none" color="black" stroke="currentColor" stroke-width="1.00" stroke-linecap="butt" stroke-linejoin="miter">
	<path stroke='black'  d='M507.3,392.0 L507.3,383.0 M507.3,18.1 L507.3,27.1  '/>	<g transform="translate(507.3,413.9)" stroke="none" fill="black" font-family="Arial" font-size="12.00"  text-anchor="middle">
		<text><tspan font-family="Arial" > 80</tspan></text>
	</g>
</g>
<g fill="none" color="black" stroke="currentColor" stroke-width="1.00" stroke-linecap="butt" stroke-linejoin="miter">
	<path stroke='black'  d='M564.0,392.0 L564.0,383.0 M564.0,18.1 L564.0,27.1  '/>	<g transform="translate(564.0,413.9)" stroke="none" fill="black" font-family="Arial" font-size="12.00"  text-anchor="middle">
		<text><tspan font-family="Arial" > 90</tspan></text>
	</g>
</g>
<g fill="none" color="black" stroke="currentColor" stroke-width="1.00" stroke-linecap="butt" stroke-linejoin="miter">
</g>
<g fill="none" color="black" stroke="currentColor" stroke-width="1.00" stroke-linecap="butt" stroke-linejoin="miter">
	<path stroke='black'  d='M53.9,18.1 L53.9,392.0 L615.0,392.0 L615.0,18.1 L53.9,18.1 Z  '/></g>
<g fill="none" color="black" stroke="currentColor" stroke-width="1.00" stroke-linecap="butt" stroke-linejoin="miter">
</g>
	<g id="gnuplot_plot_1" ><title>pages+cached+noexternal</title>
<g fill="none" color="black" stroke="currentColor" stroke-width="1.00" stroke-linecap="butt" stroke-linejoin="miter">
	<g transform="translate(433.7,431.9)" stroke="none" fill="black" font-family="Arial" font-size="12.00"  text-anchor="end">
		<text><tspan font-family="Arial" >pages+cached+noexternal</tspan></text>
	</g>
</g>
<g fill="none" color="black" stroke="currentColor" stroke-width="1.00" stroke-linecap="butt" stroke-linejoin="miter">
	<path stroke='rgb(148,   0, 211)'  d='M442.0,428.0 L484.2,428.0 M53.9,144.6 L59.6,105.8 L65.2,83.0 L70.9,114.0 L76.6,111.4 L82.2,119.4
		L87.9,100.6 L93.6,127.1 L99.2,97.2 L104.9,102.6 L110.6,99.0 L116.2,91.7 L121.9,87.7 L127.6,78.2
		L133.2,132.1 L138.9,88.6 L144.6,91.6 L150.3,86.5 L155.9,126.5 L161.6,100.8 L167.3,83.7 L172.9,134.5
		L178.6,98.0 L184.3,74.4 L189.9,103.0 L195.6,98.0 L201.3,115.9 L206.9,147.5 L212.6,94.0 L218.3,138.0
		L223.9,112.7 L229.6,100.0 L235.3,106.1 L240.9,156.9 L246.6,91.5 L252.3,70.3 L257.9,128.7 L263.6,136.6
		L269.3,108.1 L274.9,123.8 L280.6,125.3 L286.3,127.0 L291.9,77.6 L297.6,73.8 L303.3,164.8 L308.9,101.0
		L314.6,114.7 L320.3,159.4 L325.9,138.3 L331.6,154.6 L337.3,82.6 L343.0,101.0 L348.6,85.0 L354.3,80.6
		L360.0,39.5 L365.6,146.6 L371.3,148.6 L377.0,76.0 L382.6,94.3 L388.3,129.8 L394.0,83.5 L399.6,100.8
		L405.3,95.9 L411.0,88.7 L416.6,87.8 L422.3,94.7 L428.0,112.4 L433.6,105.0 L439.3,69.0 L445.0,133.3
		L450.6,105.5 L456.3,101.1 L462.0,132.4 L467.6,84.6 L473.3,119.4 L479.0,93.0 L484.6,135.8 L490.3,102.2
		L496.0,25.3 L501.6,84.8 L507.3,122.7 L513.0,59.6 L518.6,85.6 L524.3,97.4 L530.0,102.5 L535.7,109.4
		L541.3,88.6 L547.0,124.3 L552.7,120.0 L558.3,111.1 L564.0,78.5 L569.7,113.1 L575.3,42.1 L581.0,124.9
		L586.7,86.3 L592.3,110.0 L598.0,103.5 L603.7,136.7 L609.3,111.2 L615.0,109.2  '/></g>
	</g>
	<g id="gnuplot_plot_2" ><title>pages+cached+noexternal+nofonts</title>
<g fill="none" color="black" stroke="currentColor" stroke-width="1.00" stroke-linecap="butt" stroke-linejoin="miter">
	<g transform="translate(433.7,449.9)" stroke="none" fill="black" font-family="Arial" font-size="12.00"  text-anchor="end">
		<text><tspan font-family="Arial" >pages+cached+noexternal+nofonts</tspan></text>
	</g>
</g>
<g fill="none" color="black" stroke="currentColor" stroke-width="1.00" stroke-linecap="butt" stroke-linejoin="miter">
	<path stroke='rgb(  0, 158, 115)'  d='M442.0,446.0 L484.2,446.0 M53.9,284.9 L59.6,327.8 L65.2,275.3 L70.9,270.0 L76.6,273.6 L82.2,280.6
		L87.9,326.0 L93.6,288.1 L99.2,331.4 L104.9,302.0 L110.6,273.1 L116.2,302.4 L121.9,268.0 L127.6,332.3
		L133.2,292.2 L138.9,287.1 L144.6,276.0 L150.3,287.1 L155.9,274.8 L161.6,300.4 L167.3,333.3 L172.9,225.9
		L178.6,276.4 L184.3,268.5 L189.9,261.5 L195.6,261.3 L201.3,281.4 L206.9,282.3 L212.6,284.0 L218.3,301.9
		L223.9,297.1 L229.6,281.0 L235.3,282.1 L240.9,298.8 L246.6,317.6 L252.3,305.2 L257.9,329.6 L263.6,264.7
		L269.3,261.8 L274.9,221.1 L280.6,305.9 L286.3,316.5 L291.9,325.6 L297.6,281.0 L303.3,239.5 L308.9,304.8
		L314.6,267.7 L320.3,315.7 L325.9,350.8 L331.6,315.2 L337.3,300.1 L343.0,277.4 L348.6,275.8 L354.3,286.7
		L360.0,309.8 L365.6,287.4 L371.3,283.2 L377.0,307.6 L382.6,293.2 L388.3,275.6 L394.0,345.6 L399.6,294.7
		L405.3,321.7 L411.0,294.6 L416.6,333.3 L422.3,330.7 L428.0,296.1 L433.6,308.1 L439.3,301.5 L445.0,268.0
		L450.6,274.7 L456.3,289.8 L462.0,270.1 L467.6,356.5 L473.3,313.2 L479.0,294.8 L484.6,321.8 L490.3,303.9
		L496.0,271.2 L501.6,244.0 L507.3,309.1 L513.0,286.2 L518.6,322.6 L524.3,349.3 L530.0,286.2 L535.7,296.2
		L541.3,305.6 L547.0,345.2 L552.7,297.6 L558.3,310.4 L564.0,307.3 L569.7,283.9 L575.3,286.2 L581.0,339.7
		L586.7,384.8 L592.3,308.0 L598.0,273.6 L603.7,297.5 L609.3,275.3 L615.0,277.2  '/></g>
	</g>
	<g id="gnuplot_plot_3" ><title>score p10=2017</title>
<g fill="none" color="black" stroke="currentColor" stroke-width="1.00" stroke-linecap="butt" stroke-linejoin="miter">
	<g transform="translate(433.7,467.9)" stroke="none" fill="black" font-family="Arial" font-size="12.00"  text-anchor="end">
		<text><tspan font-family="Arial" >score p10=2017</tspan></text>
	</g>
</g>
<g fill="none" color="black" stroke="currentColor" stroke-width="1.00" stroke-linecap="butt" stroke-linejoin="miter">
	<path stroke='rgb( 86, 180, 233)'  d='M442.0,464.0 L484.2,464.0  '/></g>
	</g>
	<g id="gnuplot_plot_4" ><title>score median=4000</title>
<g fill="none" color="black" stroke="currentColor" stroke-width="1.00" stroke-linecap="butt" stroke-linejoin="miter">
	<g transform="translate(433.7,485.9)" stroke="none" fill="black" font-family="Arial" font-size="12.00"  text-anchor="end">
		<text><tspan font-family="Arial" >score median=4000</tspan></text>
	</g>
</g>
<g fill="none" color="black" stroke="currentColor" stroke-width="1.00" stroke-linecap="butt" stroke-linejoin="miter">
	<path stroke='rgb(230, 159,   0)'  d='M442.0,482.0 L484.2,482.0  '/></g>
	</g>
<g fill="none" color="#FFFFFF" stroke="rgb(230, 159,   0)" stroke-width="2.00" stroke-linecap="butt" stroke-linejoin="miter">
</g>
<g fill="none" color="black" stroke="currentColor" stroke-width="2.00" stroke-linecap="butt" stroke-linejoin="miter">
</g>
<g fill="none" color="black" stroke="black" stroke-width="1.00" stroke-linecap="butt" stroke-linejoin="miter">
</g>
<g fill="none" color="black" stroke="currentColor" stroke-width="1.00" stroke-linecap="butt" stroke-linejoin="miter">
	<path stroke='black'  d='M53.9,18.1 L53.9,392.0 L615.0,392.0 L615.0,18.1 L53.9,18.1 Z  '/></g>
<g fill="none" color="black" stroke="currentColor" stroke-width="1.00" stroke-linecap="butt" stroke-linejoin="miter">
</g>
</g>
</svg>
